dist/img/sprites/benefits-assistance-4.svg

<svg viewBox="0 0 235 212" fill="none" xmlns="http://www.w3.org/2000/svg">
<path fill-rule="evenodd" clip-rule="evenodd" d="M93.0397 37.7641C92.8157 35.3156 89.9031 34.1614 88.0627 35.7918L36.4052 81.5582C35.8243 82.0728 35.4654 82.7926 35.404 83.5663L33.2567 110.623C33.1182 112.368 34.4968 113.86 36.2473 113.86H96.7128C98.4776 113.86 99.8611 112.345 99.7003 110.587L93.0397 37.7641Z" fill="#C0F3CA"/>
<path d="M226.423 144.702H8.56985C6.29757 144.7 4.11893 143.796 2.51219 142.189C0.905445 140.583 0.00199319 138.404 8.29123e-05 136.132V31.1945C-0.00610084 29.4523 0.333671 27.7262 0.999888 26.1164C1.66611 24.5066 2.64542 23.0451 3.88096 21.8167L20.9629 4.73479C22.1916 3.50023 23.6534 2.52206 25.2633 1.85707C26.8731 1.19208 28.5989 0.853435 30.3407 0.860963H226.43C228.701 0.862869 230.879 1.76542 232.485 3.3706C234.092 4.97579 234.996 7.15265 235 9.42368V136.125C235 138.399 234.096 140.581 232.488 142.189C230.879 143.798 228.698 144.702 226.423 144.702ZM9.38508 135.324H225.615V10.246H30.3336C29.8261 10.2435 29.3232 10.3416 28.8539 10.5348C28.3846 10.728 27.9583 11.0123 27.5996 11.3713L10.5175 28.4533C10.1575 28.8116 9.87218 29.2376 9.67778 29.7069C9.48339 30.1761 9.38391 30.6794 9.38508 31.1873V135.324Z" fill="#2C2A2D"/>
<path d="M227.007 176.218H7.98503C5.86897 176.215 3.8409 175.372 2.34529 173.875C0.849686 172.378 0.0087423 170.349 0.00683594 168.233V151.086H9.38461V166.855H225.615V151.086H234.992V168.247C234.985 170.362 234.14 172.387 232.644 173.88C231.148 175.374 229.121 176.215 227.007 176.218Z" fill="#2C2A2D"/>
<path d="M167.256 211.082H157.878V195.089L155.267 192.478H119.609V183.1H155.844C156.893 183.097 157.933 183.302 158.902 183.703C159.872 184.104 160.752 184.694 161.492 185.438L164.919 188.871C165.661 189.61 166.25 190.49 166.651 191.458C167.053 192.426 167.258 193.464 167.256 194.512V211.082Z" fill="#2C2A2D"/>
<path d="M81.3417 211.082H71.9639V194.49C71.9616 193.442 72.167 192.404 72.5681 191.436C72.9693 190.468 73.5583 189.589 74.3011 188.849L77.7348 185.416C78.4742 184.673 79.3532 184.084 80.3214 183.683C81.2897 183.281 82.3278 183.076 83.3758 183.078H119.61V192.456H83.989L81.3776 195.067L81.3417 211.082Z" fill="#2C2A2D"/>
<path d="M194.088 38.4478L132.139 100.397L138.77 107.029L200.719 45.0789L194.088 38.4478Z" fill="#2C2A2D"/>
<path d="M185.6 109.247C182.25 109.248 178.974 108.256 176.188 106.395C173.401 104.535 171.229 101.889 169.946 98.7941C168.663 95.6989 168.327 92.2926 168.98 89.0063C169.634 85.7201 171.247 82.7015 173.616 80.3323C175.985 77.9631 179.004 76.3497 182.29 75.6964C185.577 75.0431 188.983 75.3792 192.078 76.6621C195.173 77.9449 197.819 80.1169 199.679 82.9034C201.54 85.6899 202.532 88.9657 202.531 92.3162C202.525 96.8047 200.739 101.108 197.566 104.282C194.392 107.455 190.089 109.241 185.6 109.247ZM185.6 84.7563C184.105 84.7549 182.642 85.197 181.398 86.0268C180.154 86.8566 179.184 88.0368 178.611 89.4181C178.037 90.7994 177.887 92.3197 178.177 93.7866C178.468 95.2536 179.188 96.6014 180.245 97.6594C181.302 98.7174 182.649 99.438 184.116 99.7303C185.582 100.023 187.103 99.8733 188.484 99.3013C189.866 98.7293 191.047 97.7605 191.878 96.5171C192.709 95.2737 193.153 93.8118 193.153 92.3162C193.157 91.3213 192.964 90.3354 192.587 89.4149C192.209 88.4944 191.653 87.6575 190.952 86.952C190.25 86.2464 189.417 85.6861 188.498 85.3032C187.58 84.9202 186.595 84.7221 185.6 84.7202V84.7563Z" fill="#2C2A2D"/>
<path d="M146.791 70.4081C143.44 70.4095 140.165 69.4174 137.379 67.5571C134.592 65.6969 132.42 63.0521 131.137 59.9573C129.854 56.8624 129.518 53.4566 130.17 50.1705C130.823 46.8845 132.436 43.8657 134.804 41.4962C137.173 39.1267 140.191 37.5128 143.476 36.8587C146.762 36.2046 150.168 36.5396 153.264 37.8213C156.359 39.1031 159.005 41.2741 160.866 44.0597C162.728 46.8452 163.721 50.1201 163.721 53.4704C163.715 57.9596 161.93 62.2633 158.756 65.4383C155.583 68.6133 151.28 70.4005 146.791 70.4081ZM146.791 45.8816C145.295 45.8802 143.833 46.3224 142.589 47.1523C141.344 47.9821 140.374 49.1623 139.801 50.5435C139.228 51.9248 139.077 53.4451 139.368 54.9121C139.659 56.379 140.378 57.7267 141.435 58.7847C142.492 59.8427 143.839 60.5635 145.306 60.8558C146.773 61.1481 148.293 60.9988 149.675 60.4268C151.057 59.8548 152.238 58.8858 153.069 57.6424C153.9 56.399 154.343 54.937 154.343 53.4415C154.334 51.4433 153.534 49.5301 152.119 48.1191C150.704 46.7082 148.789 45.9143 146.791 45.9105V45.8816Z" fill="#2C2A2D"/>
<path d="M38.6942 113.467H29.3164V84.8428C29.314 83.9668 29.485 83.0991 29.8192 82.2895C30.1535 81.4798 30.6445 80.7441 31.2641 80.125L39.4228 71.9665C40.0411 71.3477 40.7756 70.8571 41.5839 70.5228C42.3923 70.1886 43.2586 70.0174 44.1333 70.0188H55.0333V79.3966H45.2587L38.6942 85.9609V113.467Z" fill="#2C2A2D"/>
<path d="M59.7225 113.467H50.3447V63.5985C50.3431 62.723 50.5148 61.856 50.8504 61.0474C51.1859 60.2389 51.6786 59.5049 52.2996 58.8879L60.4581 50.7292C61.0755 50.1091 61.8098 49.6178 62.6184 49.2835C63.427 48.9491 64.2937 48.7785 65.1687 48.7815H74.7485C76.3409 48.7815 77.8683 49.4136 78.995 50.539C80.1217 51.6643 80.7556 53.1909 80.7575 54.7834V78.2278H71.3798V58.1304H66.2941L59.7225 64.6949V113.467Z" fill="#2C2A2D"/>
<path d="M121.436 113.661H99.0732C97.3072 113.658 95.6149 112.954 94.3668 111.704C93.1188 110.455 92.4168 108.762 92.4149 106.996V38.5526H87.3222L80.7577 45.1243V113.495H71.3799V43.9989C71.3767 43.1233 71.5478 42.2558 71.8834 41.447C72.2191 40.6383 72.7125 39.9044 73.3348 39.2884L81.4863 31.1297C82.1051 30.5091 82.8404 30.017 83.65 29.6815C84.4597 29.346 85.3277 29.1738 86.2041 29.1748H95.7838C97.3769 29.1767 98.9042 29.8104 100.031 30.9368C101.157 32.0633 101.791 33.5908 101.793 35.1839V104.312H121.436V113.661Z" fill="#2C2A2D"/>
<path d="M127.162 151.273H112.057V160.651H127.162V151.273Z" fill="#2C2A2D"/>
</svg>

<svg viewBox="0 0 235 212" fill="none" xmlns="http://www.w3.org/2000/svg"><path fill-rule="evenodd" clip-rule="evenodd" d="M93.04 37.764c-.224-2.448-3.137-3.603-4.977-1.972L36.405 81.558a3 3 0 00-1.001 2.008l-2.147 27.057a3 3 0 002.99 3.237h60.466a3 3 0 002.987-3.273l-6.66-72.823z" fill="#C0F3CA"/><path d="M226.423 144.702H8.57a8.577 8.577 0 01-8.57-8.57V31.194a13.157 13.157 0 013.881-9.377L20.963 4.735A13.15 13.15 0 0130.34.86h196.09A8.576 8.576 0 01235 9.424v126.701a8.577 8.577 0 01-8.577 8.577zM9.385 135.324h216.23V10.246H30.334a3.837 3.837 0 00-2.734 1.125L10.518 28.453a3.844 3.844 0 00-1.133 2.734v104.137zm217.622 40.894H7.985a7.988 7.988 0 01-7.978-7.985v-17.147h9.378v15.769h216.23v-15.769h9.377v17.161a7.996 7.996 0 01-7.985 7.971zm-59.751 34.864h-9.378v-15.993l-2.611-2.611h-35.658V183.1h36.235a7.94 7.94 0 015.648 2.338l3.427 3.433a7.942 7.942 0 012.337 5.641v16.57z" fill="#2C2A2D"/><path d="M81.342 211.082h-9.378V194.49a7.933 7.933 0 012.337-5.641l3.434-3.433a7.93 7.93 0 015.64-2.338h36.235v9.378H83.989l-2.611 2.611-.036 16.015zM194.088 38.448l-61.949 61.949 6.631 6.632 61.949-61.95-6.631-6.631zm-8.488 70.799a16.936 16.936 0 01-15.654-10.453 16.94 16.94 0 0112.344-23.098 16.938 16.938 0 0120.241 16.62 16.958 16.958 0 01-4.965 11.966 16.958 16.958 0 01-11.966 4.965zm0-24.49a7.561 7.561 0 107.553 7.56 7.576 7.576 0 00-2.201-5.365 7.565 7.565 0 00-5.352-2.232v.036zm-38.809-14.349a16.935 16.935 0 01-15.654-10.45 16.944 16.944 0 0112.339-23.099 16.942 16.942 0 0117.39 7.2 16.933 16.933 0 012.855 9.411 16.96 16.96 0 01-16.93 16.938zm0-24.526a7.558 7.558 0 00-7.423 9.03 7.56 7.56 0 0014.975-1.47 7.565 7.565 0 00-7.552-7.532v-.028zM38.694 113.467h-9.378V84.843a6.644 6.644 0 011.948-4.718l8.159-8.159a6.645 6.645 0 014.71-1.947h10.9v9.378H45.26l-6.565 6.564v27.506z" fill="#2C2A2D"/><path d="M59.722 113.467h-9.377V63.599a6.623 6.623 0 011.955-4.711l8.158-8.159a6.615 6.615 0 014.71-1.947h9.58a6.009 6.009 0 016.01 6.001v23.445H71.38V58.13h-5.086l-6.572 6.565v48.772z" fill="#2C2A2D"/><path d="M121.436 113.661H99.073a6.67 6.67 0 01-6.658-6.665V38.553h-5.093l-6.564 6.571v68.371H71.38V43.999a6.596 6.596 0 011.955-4.71l8.151-8.16a6.651 6.651 0 014.718-1.954h9.58a6.018 6.018 0 016.009 6.009v69.128h19.643v9.349zm5.726 37.612h-15.105v9.378h15.105v-9.378z" fill="#2C2A2D"/></svg>
